resources/svg/medium.svg

<svg xmlns="http://www.w3.org/2000/svg" viewBox="0 0 24 24" fill="currentColor"><path fill="currentColor" d="M2.84593838,5.88685595 C2.87575654,5.59224254 2.76340763,5.30104995 2.54341737,5.10276397 L0.302521008,2.4032473 L0.302521008,2 L7.2605042,2 L12.6386555,13.7949836 L17.3669469,2 L24,2 L24,2.4032473 L22.0840336,4.2402628 C21.9188563,4.36617057 21.8369199,4.57310892 21.8711485,4.77792587 L21.8711485,18.2755093 C21.8369199,18.4803262 21.9188563,18.6872645 22.0840336,18.8131723 L23.9551821,20.6501878 L23.9551821,21.0534351 L14.5434174,21.0534351 L14.5434174,20.6501878 L16.4817928,18.7683671 C16.6722689,18.5779447 16.6722689,18.5219382 16.6722689,18.2307041 L16.6722689,7.32062416 L11.2829132,21.0086299 L10.5546219,21.0086299 L4.28011204,7.32062416 L4.28011204,16.4945003 C4.22779746,16.8801958 4.35589372,17.2685069 4.62745097,17.5474239 L7.14845938,20.6053826 L7.14845938,21.0086299 L0,21.0086299 L0,20.6053826 L2.5210084,17.5474239 C2.79058848,17.2680445 2.91121535,16.8771576 2.84593838,16.4945003 L2.84593838,5.88685595 Z"/></svg>

<svg viewBox="0 0 24 24"><path fill="currentColor" d="M2.846 5.887a.93.93 0 0 0-.303-.784l-2.24-2.7V2H7.26l5.378 11.795L17.367 2H24v.403L22.084 4.24a.56.56 0 0 0-.213.538v13.498a.56.56 0 0 0 .213.537l1.871 1.837v.403h-9.412v-.403l1.939-1.882c.19-.19.19-.246.19-.537V7.32l-5.39 13.688h-.727L4.28 7.32v9.174c-.052.385.076.774.347 1.052l2.521 3.058v.404H0v-.404l2.521-3.058c.27-.279.39-.67.325-1.052V5.887z"/></svg>
